X:35
T:Can Hela'r Dryw - The Wren Hunting Song
M:6/8
L:1/8
Q:70
C:Trad. arr. J.T.
R:Processional
N:Compiled from tune versions from Brynsiencyn and Ruthin
K:D
D2 D F2 F/2F/2 | EEE D D2 | F2 F A2 A/2A/2 | GGG F F2 | D2 D F2 F/2F/2 |
EEE G3 | G2 ^G A2 D/2D/2 | EFE D3 || EEE E2 E/2E/2 | =GGF E F2|
EEE E2 E/2E/2 | GGF E F2 | B>AG GFE | FGF F>GA | B>AG GFE | F<GF E3||
